X: 14639
T: Gan Ainm
R: hornpipe
M: 4/4
K: Gmajor
BA|(3GBG DG B,DGE|(3DED B,D GBdg|ecge d^ced|^cd=cA FDBA|
(3GBG DG B,DGE|(3DED B,D GBdg|ecge d^ced|^cd=cA G2:|
Gd|eBef gfeg|(3fga df Ad (3fed|edBA GBDG|(3FGA DF A,DFD|
GdBG ECGE|DG(3BAG dGBd|ecge d^ced|^cd=cA G2:|
(3BAG|FGAB {d}cBAG|(3FGA DF A,DFD|FGAB (3cBA (3BAG|Ad (3efg fd=cA|
GdBG ECGE|DG (3BAG dGBd|ecge d^ced|^cd=cA G2:|

